arcticons-dark/symbolic/apps/yubikey-personalization-gui-symbolic.svg

<?xml version="1.0" encoding="UTF-8" standalone="no"?>
<svg
   viewBox="0 0 48 48"
   version="1.1"
   id="svg19"
   sodipodi:docname="yubikey-personalization-gui.svg"
   xmlns:inkscape="http://www.inkscape.org/namespaces/inkscape"
   xmlns:sodipodi="http://sodipodi.sourceforge.net/DTD/sodipodi-0.dtd"
   xmlns="http://www.w3.org/2000/svg"
   xmlns:svg="http://www.w3.org/2000/svg">
  <sodipodi:namedview
     id="namedview19"
     pagecolor="#ffffff"
     bordercolor="#666666"
     borderopacity="1.0"
     inkscape:showpageshadow="2"
     inkscape:pageopacity="0.0"
     inkscape:pagecheckerboard="0"
     inkscape:deskcolor="#d1d1d1" />
  <defs
     id="defs1">
    <style
       id="style1">.a{fill:none;stroke:#fff;stroke-width:2px;stroke-linecap:round;stroke-linejoin:round;}.b{fill:#fff;}</style>
  </defs>
  <path
     style="color:#000000;fill:#ffffff;stroke-linecap:round;stroke-linejoin:round;-inkscape-stroke:none"
     d="M 24,1.5 C 11.58545,1.5 1.5,11.58545 1.5,24 1.5,36.41455 11.58545,46.5 24,46.5 36.41455,46.5 46.5,36.41455 46.5,24 46.5,11.58545 36.41455,1.5 24,1.5 Z m 0,2 C 35.333671,3.5 44.5,12.666329 44.5,24 44.5,35.333671 35.333671,44.5 24,44.5 12.666329,44.5 3.5,35.333671 3.5,24 3.5,12.666329 12.666329,3.5 24,3.5 Z"
     id="circle1" />
  <circle
     class="b"
     cx="36.7279"
     cy="11.2721"
     r="0.75"
     id="circle2" />
  <circle
     class="b"
     cx="36.7279"
     cy="11.2721"
     r="0.75"
     id="circle3" />
  <circle
     class="b"
     cx="42"
     cy="24"
     r="0.75"
     id="circle4" />
  <circle
     class="b"
     cx="42"
     cy="24"
     r="0.75"
     id="circle5" />
  <circle
     class="b"
     cx="36.7279"
     cy="36.7279"
     r="0.75"
     id="circle6" />
  <circle
     class="b"
     cx="36.7279"
     cy="36.7279"
     r="0.75"
     id="circle7" />
  <circle
     class="b"
     cx="24"
     cy="42"
     r="0.75"
     id="circle8" />
  <circle
     class="b"
     cx="24"
     cy="42"
     r="0.75"
     id="circle9" />
  <circle
     class="b"
     cx="11.2721"
     cy="36.7279"
     r="0.75"
     id="circle10" />
  <circle
     class="b"
     cx="11.2721"
     cy="36.7279"
     r="0.75"
     id="circle11" />
  <circle
     class="b"
     cx="6"
     cy="24"
     r="0.75"
     id="circle12" />
  <circle
     class="b"
     cx="6"
     cy="24"
     r="0.75"
     id="circle13" />
  <circle
     class="b"
     cx="11.2721"
     cy="11.2721"
     r="0.75"
     id="circle14" />
  <circle
     class="b"
     cx="11.2721"
     cy="11.2721"
     r="0.75"
     id="circle15" />
  <circle
     class="b"
     cx="24"
     cy="6"
     r="0.75"
     id="circle16" />
  <circle
     class="b"
     cx="24"
     cy="6"
     r="0.75"
     id="circle17" />
  <path
     style="color:#000000;fill:#ffffff;stroke-linecap:round;stroke-linejoin:round;-inkscape-stroke:none"
     d="M 24,7.9296875 C 15.136748,7.9296875 7.9296875,15.136748 7.9296875,24 7.9296875,32.863252 15.136748,40.070312 24,40.070312 32.863252,40.070312 40.070312,32.863252 40.070312,24 40.070312,15.136748 32.863252,7.9296875 24,7.9296875 Z m 0,2 C 31.782373,9.9296875 38.070313,16.217627 38.070312,24 38.070312,31.782373 31.782373,38.070313 24,38.070312 16.217627,38.070312 9.9296875,31.782373 9.9296875,24 9.9296875,16.217627 16.217627,9.9296875 24,9.9296875 Z"
     id="circle18" />
  <path
     style="color:#000000;fill:#ffffff;stroke-linecap:round;stroke-linejoin:round;-inkscape-stroke:none"
     d="m 29.9375,14.544922 a 1,1 0 0 0 -0.589844,0.490234 l -8.943359,17 a 1,1 0 0 0 0.419922,1.34961 1,1 0 0 0 1.351562,-0.419922 l 8.94336,-17 a 1,1 0 0 0 -0.419922,-1.34961 1,1 0 0 0 -0.761719,-0.07031 z"
     id="line18" />
  <path
     style="color:#000000;fill:#ffffff;stroke-linecap:round;stroke-linejoin:round;-inkscape-stroke:none"
     d="m 18.0625,14.544922 a 1,1 0 0 0 -0.761719,0.07031 1,1 0 0 0 -0.419922,1.34961 l 6.234375,11.849609 a 1,1 0 0 0 1.34961,0.419922 1,1 0 0 0 0.419922,-1.351563 L 18.652344,15.035156 A 1,1 0 0 0 18.0625,14.544922 Z"
     id="line19" />
</svg>

<?xml version="1.0" encoding="UTF-8"?>
<svg id="svg46" version="1.1" viewBox="0 0 48 48" xmlns="http://www.w3.org/2000/svg">
 <defs id="defs4">
  <style id="style2">.a{fill:none;stroke:#fff;stroke-width:2px;stroke-linecap:round;stroke-linejoin:round;}.b{fill:#fff;}</style>
 </defs>
 <path id="circle6" d="m24 1.5c-12.415 0-22.5 10.085-22.5 22.5s10.085 22.5 22.5 22.5 22.5-10.085 22.5-22.5-10.085-22.5-22.5-22.5zm0 2c11.334 0 20.5 9.1663 20.5 20.5s-9.1663 20.5-20.5 20.5-20.5-9.1663-20.5-20.5 9.1663-20.5 20.5-20.5z" color="#000000" fill="#fff" stroke-linecap="round" stroke-linejoin="round" style="-inkscape-stroke:none"/>
 <circle id="circle8" class="b" cx="36.728" cy="11.272" r=".75"/>
 <circle id="circle10" class="b" cx="36.728" cy="11.272" r=".75"/>
 <circle id="circle12" class="b" cx="42" cy="24" r=".75"/>
 <circle id="circle14" class="b" cx="42" cy="24" r=".75"/>
 <circle id="circle16" class="b" cx="36.728" cy="36.728" r=".75"/>
 <circle id="circle18" class="b" cx="36.728" cy="36.728" r=".75"/>
 <circle id="circle20" class="b" cx="24" cy="42" r=".75"/>
 <circle id="circle22" class="b" cx="24" cy="42" r=".75"/>
 <circle id="circle24" class="b" cx="11.272" cy="36.728" r=".75"/>
 <circle id="circle26" class="b" cx="11.272" cy="36.728" r=".75"/>
 <circle id="circle28" class="b" cx="6" cy="24" r=".75"/>
 <circle id="circle30" class="b" cx="6" cy="24" r=".75"/>
 <circle id="circle32" class="b" cx="11.272" cy="11.272" r=".75"/>
 <circle id="circle34" class="b" cx="11.272" cy="11.272" r=".75"/>
 <circle id="circle36" class="b" cx="24" cy="6" r=".75"/>
 <circle id="circle38" class="b" cx="24" cy="6" r=".75"/>
 <path id="circle40" d="m24 7.9297c-8.8633 0-16.07 7.2071-16.07 16.07s7.2071 16.07 16.07 16.07 16.07-7.2071 16.07-16.07-7.2071-16.07-16.07-16.07zm0 2c7.7824 0 14.07 6.2879 14.07 14.07 0 7.7824-6.2879 14.07-14.07 14.07-7.7824 0-14.07-6.2879-14.07-14.07s6.2879-14.07 14.07-14.07z" color="#000000" fill="#fff" stroke-linecap="round" stroke-linejoin="round" style="-inkscape-stroke:none"/>
 <path id="line42" d="m29.938 14.545a1 1 0 0 0-0.58984 0.49023l-8.9434 17a1 1 0 0 0 0.41992 1.3496 1 1 0 0 0 1.3516-0.41992l8.9434-17a1 1 0 0 0-0.41992-1.3496 1 1 0 0 0-0.76172-0.07031z" color="#000000" fill="#fff" stroke-linecap="round" stroke-linejoin="round" style="-inkscape-stroke:none"/>
 <path id="line44" d="m18.062 14.545a1 1 0 0 0-0.76172 0.07031 1 1 0 0 0-0.41992 1.3496l6.2344 11.85a1 1 0 0 0 1.3496 0.41992 1 1 0 0 0 0.41992-1.3516l-6.2324-11.848a1 1 0 0 0-0.58984-0.49023z" color="#000000" fill="#fff" stroke-linecap="round" stroke-linejoin="round" style="-inkscape-stroke:none"/>
</svg>
